data/playwrite-mx.svg

<svg width="109.02" height="27.048" viewBox="0 0 109.02 27.048" xmlns="http://www.w3.org/2000/svg"><path transform="translate(0 19.992) scale(.014 -.014)" d="m465 377q-19-1-26.5 10t-4.5 34q4 20 14 29.5t28 9.5q97 5 177 31.5t138.5 73 90 106.5 31.5 130q0 62-33.5 96.5t-94.5 34.5q-37 0-76-16.5t-78.5-47.5-75.5-75-68-99-57-118l-181-562q-4-14-16-21t-35-7q-22 0-33 7t-6 23l250 771q-24-23-51-43t-57-38-63-34q-21-11-34.5-3.5t-21.5 27.5q-7 19-1.5 32t25.5 22q67 30 116 64t85.5 77 63.5 97q9 16 19.5 21.5t33.5 5.5q22 0 32.5-7t5.5-23l-39-121q44 51 91.5 84t97 50 97.5 17q59 0 102.5-26t67.5-71.5 24-106.5q0-91-39.5-168.5t-111.5-135.5-170.5-92-216.5-38z"/><path transform="translate(12.194 19.992) scale(.014 -.014)" d="m-147-17q-19 0-25 11.5t-2.5 26 16 26 30.5 11.5q31 0 71 19.5t85.5 54.5 92.5 82 94 102.5 90 115.5 80 121 64 119.5 42.5 111.5 15.5 95q0 15 13 22.5t30.5 7.5 30.5-7.5 13-22.5q0-45-17-101.5t-48.5-120-73.5-130-91.5-132.5-103.5-127-109-112.5-108.5-90.5-102-60.5-87.5-21.5zm319 1q-43 0-64.5 15.5t-27.5 41.5-1.5 58 14.5 64l223 687q29 89 70 129t99 40q34 0 58.5-17.5t37.5-48.5 13-74q0-19-13-28t-30.5-9-30.5 9-13 28q0 18-4 30.5t-11.5 19-21.5 6.5q-11 0-23-9t-23.5-29.5-23.5-58.5l-233-723q-4-13-6-26t3-21.5 19-8.5 26 7 22.5 18.5 18.5 22.5q5 9 15.5 12t25.5-7q17-10 17.5-20.5t-4.5-21.5q-10-17-28.5-37.5t-44.5-34.5-59-14z"/><path transform="translate(17.71 19.992) scale(.014 -.014)" d="m180-17q-43 0-74 19.5t-47.5 56.5-16.5 87q0 44 12.5 95t38 100 64 89.5 90.5 64.5 118 24q33 0 65-10t60-27l1 4q7 18 16.5 23.5t27.5 5.5q32 0 40-9.5t2-29.5l-119-361q-4-13-6-26t3-21.5 20-8.5q13 0 25 7t22.5 18.5 18.5 22.5q6 9 16.5 12t25.5-7q16-10 17-20.5t-5-21.5q-9-17-27.5-37.5t-44.5-34.5-59-14q-31 0-50 9t-28.5 24-12.5 34-1 39q0 3 0 5.5t1 4.5q-35-44-70-70t-66.5-36.5-56.5-10.5zm-48 174q0-31 8.5-51.5t26-31.5 41.5-11q34 0 69 22.5t70 65.5 68 102l53 162q-27 15-52 20t-50 5q-50 0-89-19t-66.5-51-45-70-25.5-75.5-8-67.5z"/><path transform="translate(26.418 19.992) scale(.014 -.014)" d="m423-12q19 12 38 23t37.5 20.5 35.5 17.5 31 14q15 7 24-0.5t11.5-21-1-26.5-15.5-19q-19-9-40-20.5t-43-23.5-44-25-43-25zm-290-507q-59 0-94.5 33t-35.5 85q0 44 18 82.5t51.5 74.5 80 70.5 102.5 68.5q19 11 37 22t36.5 21.5 36.5 20.5l45 139q-23-27-47.5-49t-50.5-36-52-21.5-51-7.5q-54 0-85.5 24t-39 68.5 12.5 104.5l70 217q6 21 0.5 32t-21.5 11q-14 0-27-8t-27.5-25.5-31.5-46.5q-9-13-17-18t-27-2q-20 5-23.5 18t3.5 28q18 36 41.5 65.5t53.5 46.5 66 17q33 0 54.5-11.5t32-32.5 10-48.5-10.5-58.5l-60-190q-12-38-11-63t17.5-37.5 50.5-12.5q26 0 56 15t60 43 58.5 66 51.5 85l68 212q7 20 16.5 26t28.5 6q31 0 39.5-9.5t1.5-29.5l-237-728q-23-72-48.5-123t-56-83-66-46.5-79.5-14.5zm14 77q30 0 58 21.5t51.5 64.5 42.5 107l34 107q-10-5-20-11.5t-19.5-12-19.5-11.5q-43-28-77-54.5t-57.5-52-36-51.5-12.5-53q0-18 7-30t20-18 29-6z"/><path transform="translate(35.728 19.992) scale(.014 -.014)" d="m218-19q-53 0-82 19t-39 50.5-6 70 16 76.5l66 201q6 21 0.5 32t-20.5 11q-16 0-30.5-8t-29.5-25.5-33-46.5q-8-13-16.5-18t-27.5-2q-19 5-23 18t3 28q18 36 43 65.5t56 46.5 68 17q33 0 55-11.5t32-32.5 10.5-48.5-10.5-58.5l-55-168q-7-20-12.5-44t-4-45.5 14-34.5 41.5-13q30 0 57 17.5t49 46.5 39 62.5 27 65.5l19-58q-15-42-36-80.5t-47.5-68-57.5-47-66-17.5zm307 0q-51 0-83.5 17.5t-49.5 48-18 69 13 80.5l92 287q6 19 15.5 25.5t29.5 6.5q32 0 39.5-9.5t1.5-28.5l-88-277q-7-21-10.5-45.5t0-45.5 19.5-34.5 49-13.5q34 0 65 16t57.5 44 47 63.5 35.5 76 23 82 8 78.5q0 21-5 33t-11.5 16.5-14.5 4.5q-14 0-23-12t-9-26q0-16 10.5-26t28-14 37.5-4q50 0 95.5 13.5t82.5 33.5q11 6 21-0.5t16.5-19 6-24-9.5-16.5q-44-22-98-37.5t-120-15.5q-42 0-73 13t-47.5 36.5-16.5 53.5q0 26 11 50.5t34.5 40.5 60.5 16q29 0 52-13.5t37-40.5 14-68q0-44-9.5-93t-28-98-46-92.5-63.5-77.5-80.5-53.5-97.5-19.5z"/><path transform="translate(48.16 19.992) scale(.014 -.014)" d="m81-15q-16 0-29.5 7t-7.5 26l123 380q6 21 0.5 32t-21.5 11q-14 0-27-8t-27.5-25.5-31.5-46.5q-9-13-17-18t-27-2q-20 5-23.5 18t3.5 28q18 36 41.5 65.5t53.5 46.5 66 17q29 0 48-8.5t29-23.5 14-34 3-39l-6-17q22 31 44 54t44 39 42.5 24 39.5 8q14 0 23-7t9-31q0-25 3.5-43t12-28.5 21.5-10.5q24 0 53 18t62 48q9 8 20 5t19.5-13 11-22-6.5-20q-38-38-81-61t-85-23q-23 0-44 9.5t-35 32.5-17 63q-23-8-47.5-27t-49.5-48.5-48.5-69-43.5-86.5l-63-194q-4-13-14.5-19.5t-33.5-6.5z"/><path transform="translate(55.874 19.992) scale(.014 -.014)" d="m142-16q-64 0-85.5 44.5t4.5 123.5l107 331q7 20 16.5 26t28.5 6q31 0 39.5-9.5t1.5-29.5l-116-357q-9-29-4.5-44.5t22.5-15.5q13 0 25 7t22 18.5 19 22.5q6 9 16.5 12t25.5-7q16-10 17-20.5t-5-21.5q-13-22-32.5-42t-45-32-56.5-12zm133 685q-20 0-34 13t-14 38q0 27 17.5 51t54.5 24q21 0 35-12.5t14-38.5q0-27-17.5-51t-55.5-24z"/><path transform="translate(60.074 19.992) scale(.014 -.014)" d="m167-16q-54 0-76.5 25t-21 67 17.5 95l81 249h-79q-11 0-15 10t1 30q6 20 16 30t21 10h82l64 198q6 20 15.5 26t29.5 6q31 0 39.5-9.5t1.5-29.5l-62-191h126q11 0 15.5-9.5t-1.5-30.5q-5-19-15-29.5t-21-10.5h-129l-95-291q-11-35-5.5-52.5t26.5-17.5q30 0 54 20t41 41q6 9 16.5 12t25.5-7q17-10 18-20t-5-21q-12-20-34.5-44t-55-40-76.5-16z"/><path transform="translate(65.506 19.992) scale(.014 -.014)" d="m248-18q-34 0-65 11.5t-56 33-43.5 51.5-28 66.5-9.5 77.5q0 39 9 80t27.5 80 46.5 69.5 66 49 86 18.5q39 0 66.5-15.5t41.5-42 14-60.5q0-57-27-110t-71.5-99.5-96.5-82.5q-54-38-114.5-66.5t-119.5-44-111-15.5q-14 0-20 11.5t-3.5 26 14 26 32.5 11.5q44 0 93 15t98 41 91 59q36 27 69 61t54.5 72 21.5 76q0 28-12 42.5t-39 14.5q-31 0-54.5-21.5t-40-54.5-24.5-69.5-8-66.5q0-37 10-67.5t28-52.5 41.5-33.5 49.5-11.5 50.5 9.5 47.5 26.5 45 36q14 13 27 10.5t24-13.5q13-12 15-25.5t-11-26.5q-33-34-68-56t-71.5-31.5-74.5-9.5z"/><path transform="translate(75.922 19.992) scale(.014 -.014)" d="m1206-17q-48 0-76 26t-32 76 20 122l178 529q22 63 21 106t-25 65-70 22q-27 0-57.5-10t-63-30.5-64-51.5-61.5-72.5-56-94.5l-216-657q-4-14-16-21t-35-7q-22 0-33 7t-6 23l236 714q21 67 20 111t-24 66.5-68 22.5q-29 0-60.5-10t-63.5-30.5-64-51.5-61-74-56-97l-211-653q-4-14-16-21t-35-7q-22 0-33 7t-6 23l267 822q16 50 8 73t-39 23q-20 0-42.5-11t-48-32.5-55.5-55.5q-15-16-28-17t-27 11-14.5 24.5 11.5 27.5q37 48 74 78t74.5 45 72.5 15q56 0 83.5-29.5t25.5-84.5q0-10-0.5-21t-3.5-23q31 39 64 68t67 48.5 67.5 29 63.5 9.5q49 0 83.5-15t55.5-43.5 25-69.5q2-11 2.5-22t-0.5-24q32 43 67 75.5t71.5 54.5 72.5 33 70 11q74 0 116.5-34t50.5-97-22-151l-181-543q-15-44-17.5-71.5t7.5-39.5 30-12q13 0 27 8.5t29.5 26.5 35.5 47q11 17 22.5 21.5t29.5-4.5q16-8 19.5-20.5t-4.5-28.5q-17-31-37-56t-42.5-42.5-46.5-26.5-50-9z"/><path transform="translate(96.138 19.992) scale(.014 -.014)" d="m711-17q-45 0-75 22t-50 73-38 135l-42 213-395-434q-13-15-27-14t-30 16q-14 14-15.5 26.5t10.5 25.5l437 478-50 268q-12 61-23 91.5t-23.5 40-32.5 9.5q-17 0-39-7.5t-38-15.5q-16-6-27.5-2t-19.5 24q-7 18-0.5 28.5t20.5 19.5q27 17 58 26t56 9q35 0 59.5-11t40.5-35.5 28-63.5 23-95l41-215 369 411q14 16 28.5 16t29.5-16q14-13 13-27t-15-31l-405-451 51-256q11-55 20.5-90t20-54.5 22.5-27 29-7.5q21 0 42.5 23t49.5 73q7 13 19 18.5t31-5.5q17-10 19.5-22.5t-6.5-30.5q-19-36-42.5-66.5t-53.5-49.5-70-19z"/></svg>

<?xml version="1.0" encoding="utf-8" ?>
<svg baseProfile="tiny" height="100%" version="1.2" width="100%" xmlns="http://www.w3.org/2000/svg" xmlns:ev="http://www.w3.org/2001/xml-events" xmlns:xlink="http://www.w3.org/1999/xlink"><defs /><g><path d="M465 377Q446 376 438.5 387.0Q431 398 434 421Q438 441 448.0 450.5Q458 460 476 460Q573 465 653.0 491.5Q733 518 791.5 564.5Q850 611 881.5 671.0Q913 731 913 801Q913 863 879.5 897.5Q846 932 785 932Q748 932 709.0 915.5Q670 899 630.5 868.0Q591 837 555.0 793.0Q519 749 487.0 694.0Q455 639 430 576L249 14Q245 0 233.0 -7.0Q221 -14 198 -14Q176 -14 165.0 -7.0Q154 0 159 16L409 787Q385 764 358.0 744.0Q331 724 301.0 706.0Q271 688 238 672Q217 661 203.5 668.5Q190 676 182 696Q175 715 180.5 728.0Q186 741 206 750Q273 780 322.0 814.0Q371 848 407.5 891.0Q444 934 471 988Q480 1004 490.5 1009.5Q501 1015 524 1015Q546 1015 556.5 1008.0Q567 1001 562 985L523 864Q567 915 614.5 948.0Q662 981 711.5 998.0Q761 1015 809 1015Q868 1015 911.5 989.0Q955 963 979.0 917.5Q1003 872 1003 811Q1003 720 963.5 642.5Q924 565 852.0 507.0Q780 449 681.5 415.0Q583 381 465 377Z" transform="translate(0.0, 72) scale(0.072, -0.072)" /><path d="M-147 -17Q-166 -17 -172.0 -5.5Q-178 6 -174.5 20.5Q-171 35 -158.5 46.5Q-146 58 -128 58Q-97 58 -57.0 77.5Q-17 97 28.5 132.0Q74 167 121.0 214.0Q168 261 215.0 316.5Q262 372 305.0 432.0Q348 492 385.0 553.0Q422 614 449.0 672.5Q476 731 491.5 784.0Q507 837 507 879Q507 894 520.0 901.5Q533 909 550.5 909.0Q568 909 581.0 901.5Q594 894 594 879Q594 834 577.0 777.5Q560 721 528.5 657.5Q497 594 455.0 527.5Q413 461 363.5 395.0Q314 329 260.0 268.0Q206 207 151.0 155.5Q96 104 42.5 65.0Q-11 26 -59.5 4.5Q-108 -17 -147 -17ZM172 -16Q129 -16 107.5 -0.5Q86 15 80.0 41.0Q74 67 78.5 99.0Q83 131 93 163L316 850Q345 939 386.0 979.0Q427 1019 485 1019Q519 1019 543.5 1001.5Q568 984 581.0 953.0Q594 922 594 879Q594 860 581.0 851.0Q568 842 550.5 842.0Q533 842 520.0 851.0Q507 860 507 879Q507 897 503.0 909.5Q499 922 491.5 928.5Q484 935 470 935Q459 935 447.0 926.0Q435 917 423.5 896.5Q412 876 400 838L167 115Q163 102 161.0 89.0Q159 76 164.0 67.5Q169 59 183 59Q197 59 209.0 66.0Q221 73 231.5 84.5Q242 96 250 107Q255 116 265.5 119.0Q276 122 291 112Q308 102 308.5 91.5Q309 81 304 70Q294 53 275.5 32.5Q257 12 231.0 -2.0Q205 -16 172 -16Z" transform="translate(62.711999999999996, 72) scale(0.072, -0.072)" /><path d="M180 -17Q137 -17 106.0 2.5Q75 22 58.5 59.0Q42 96 42 146Q42 190 54.5 241.0Q67 292 92.5 341.0Q118 390 156.5 430.5Q195 471 247.0 495.0Q299 519 365 519Q398 519 430.0 509.0Q462 499 490 482L491 486Q498 504 507.5 509.5Q517 515 535 515Q567 515 575.0 505.5Q583 496 577 476L458 115Q454 102 452.0 89.0Q450 76 455.0 67.5Q460 59 475 59Q488 59 500.0 66.0Q512 73 522.5 84.5Q533 96 541 107Q547 116 557.5 119.0Q568 122 583 112Q599 102 600.0 91.5Q601 81 595 70Q586 53 567.5 32.5Q549 12 523.0 -2.0Q497 -16 464 -16Q433 -16 414.0 -7.0Q395 2 385.5 17.0Q376 32 373.0 51.0Q370 70 372 90Q372 93 372.0 95.5Q372 98 373 100Q338 56 303.0 30.0Q268 4 236.5 -6.5Q205 -17 180 -17ZM132 157Q132 126 140.5 105.5Q149 85 166.5 74.0Q184 63 208 63Q242 63 277.0 85.5Q312 108 347.0 151.0Q382 194 415 253L468 415Q441 430 416.0 435.0Q391 440 366 440Q316 440 277.0 421.0Q238 402 210.5 370.0Q183 338 165.5 300.0Q148 262 140.0 224.5Q132 187 132 157Z" transform="translate(91.08, 72) scale(0.072, -0.072)" /><path d="M423 -12Q442 0 461.0 11.0Q480 22 498.5 31.5Q517 41 534.0 49.0Q551 57 565 63Q580 70 589.0 62.5Q598 55 600.5 41.5Q603 28 599.5 15.0Q596 2 584 -4Q565 -13 544.0 -24.5Q523 -36 501.0 -48.0Q479 -60 457.0 -73.0Q435 -86 414 -98ZM133 -519Q74 -519 38.5 -486.0Q3 -453 3 -401Q3 -357 21.0 -318.5Q39 -280 72.5 -244.0Q106 -208 152.5 -173.5Q199 -139 255 -105Q274 -94 292.0 -83.0Q310 -72 328.5 -61.5Q347 -51 365 -41L410 98Q387 71 362.5 49.0Q338 27 312.0 13.0Q286 -1 260.0 -8.5Q234 -16 209 -16Q155 -16 123.5 8.0Q92 32 84.5 76.5Q77 121 97 181L167 398Q173 419 167.5 430.0Q162 441 146 441Q132 441 119.0 433.0Q106 425 91.5 407.5Q77 390 60 361Q51 348 43.0 343.0Q35 338 16 341Q-4 346 -7.5 359.0Q-11 372 -4 387Q14 423 37.5 452.5Q61 482 91.0 499.0Q121 516 157 516Q190 516 211.5 504.5Q233 493 243.5 472.0Q254 451 253.5 423.5Q253 396 243 365L183 175Q171 137 172.0 112.0Q173 87 189.5 74.5Q206 62 240 62Q266 62 296.0 77.0Q326 92 356.0 120.0Q386 148 414.5 186.0Q443 224 466 271L534 483Q541 503 550.5 509.0Q560 515 579 515Q610 515 618.5 505.5Q627 496 620 476L383 -252Q360 -324 334.5 -375.0Q309 -426 278.5 -458.0Q248 -490 212.5 -504.5Q177 -519 133 -519ZM147 -442Q177 -442 205.0 -420.5Q233 -399 256.5 -356.0Q280 -313 299 -249L333 -142Q323 -147 313.0 -153.5Q303 -160 293.5 -165.5Q284 -171 274 -177Q231 -205 197.0 -231.5Q163 -258 139.5 -283.5Q116 -309 103.5 -335.0Q91 -361 91 -388Q91 -406 98.0 -418.0Q105 -430 118.0 -436.0Q131 -442 147 -442Z" transform="translate(135.864, 72) scale(0.072, -0.072)" /><path d="M218 -19Q165 -19 136.0 0.0Q107 19 97.0 50.5Q87 82 91.0 120.5Q95 159 107 197L173 398Q179 419 173.5 430.0Q168 441 153 441Q137 441 122.5 433.0Q108 425 93.0 407.5Q78 390 60 361Q52 348 43.5 343.0Q35 338 16 341Q-3 346 -7.0 359.0Q-11 372 -4 387Q14 423 39.0 452.5Q64 482 95.0 499.0Q126 516 163 516Q196 516 218.0 504.5Q240 493 250.0 472.0Q260 451 260.5 423.5Q261 396 250 365L195 197Q188 177 182.5 153.0Q177 129 178.5 107.5Q180 86 192.5 73.0Q205 60 234 60Q264 60 291.0 77.5Q318 95 340.0 124.0Q362 153 379.0 186.5Q396 220 406 252L425 194Q410 152 389.0 113.5Q368 75 341.5 45.5Q315 16 284.0 -1.5Q253 -19 218 -19ZM525 -19Q474 -19 441.5 -1.5Q409 16 392.0 46.5Q375 77 374.0 115.5Q373 154 387 196L479 483Q485 502 494.5 508.5Q504 515 524 515Q556 515 563.5 505.5Q571 496 565 477L477 200Q470 179 466.5 154.5Q463 130 466.5 109.0Q470 88 486.0 74.5Q502 61 535 61Q569 61 600.0 77.0Q631 93 657.5 121.0Q684 149 704.5 184.5Q725 220 740.0 260.5Q755 301 763.0 342.5Q771 384 771 421Q771 442 766.0 454.0Q761 466 754.5 470.5Q748 475 740 475Q726 475 717.0 463.0Q708 451 708 437Q708 421 718.5 411.0Q729 401 746.5 397.0Q764 393 784 393Q834 393 879.5 406.5Q925 420 962 440Q973 446 983.0 439.5Q993 433 999.5 420.5Q1006 408 1005.5 396.5Q1005 385 996 380Q952 358 898.0 342.5Q844 327 778 327Q736 327 705.0 340.0Q674 353 657.5 376.5Q641 400 641 430Q641 456 652.0 480.5Q663 505 686.5 521.0Q710 537 747 537Q776 537 799.0 523.5Q822 510 836.0 483.0Q850 456 850 415Q850 371 840.5 322.0Q831 273 812.5 224.0Q794 175 766.5 131.5Q739 88 703.0 54.0Q667 20 622.5 0.5Q578 -19 525 -19Z" transform="translate(183.744, 72) scale(0.072, -0.072)" /><path d="M81 -15Q65 -15 51.5 -8.0Q38 -1 44 18L167 398Q173 419 167.5 430.0Q162 441 146 441Q132 441 119.0 433.0Q106 425 91.5 407.5Q77 390 60 361Q51 348 43.0 343.0Q35 338 16 341Q-4 346 -7.5 359.0Q-11 372 -4 387Q14 423 37.5 452.5Q61 482 91.0 499.0Q121 516 157 516Q186 516 205.0 507.5Q224 499 234.0 484.0Q244 469 248.0 450.0Q252 431 251 411L245 394Q267 425 289.0 448.0Q311 471 333.0 487.0Q355 503 375.5 511.0Q396 519 415 519Q429 519 438.0 512.0Q447 505 447 481Q447 456 450.5 438.0Q454 420 462.5 409.5Q471 399 484 399Q508 399 537.0 417.0Q566 435 599 465Q608 473 619.0 470.0Q630 467 638.5 457.0Q647 447 649.5 435.0Q652 423 643 415Q605 377 562.0 354.0Q519 331 477 331Q454 331 433.0 340.5Q412 350 398.0 373.0Q384 396 381 436Q358 428 333.5 409.0Q309 390 284.0 360.5Q259 331 235.5 291.5Q212 252 192 205L129 11Q125 -2 114.5 -8.5Q104 -15 81 -15Z" transform="translate(247.68, 72) scale(0.072, -0.072)" /><path d="M142 -16Q78 -16 56.5 28.5Q35 73 61 152L168 483Q175 503 184.5 509.0Q194 515 213 515Q244 515 252.5 505.5Q261 496 254 476L138 119Q129 90 133.5 74.5Q138 59 156 59Q169 59 181.0 66.0Q193 73 203.0 84.5Q213 96 222 107Q228 116 238.5 119.0Q249 122 264 112Q280 102 281.0 91.5Q282 81 276 70Q263 48 243.5 28.0Q224 8 198.5 -4.0Q173 -16 142 -16ZM275 669Q255 669 241.0 682.0Q227 695 227 720Q227 747 244.5 771.0Q262 795 299 795Q320 795 334.0 782.5Q348 770 348 744Q348 717 330.5 693.0Q313 669 275 669Z" transform="translate(287.352, 72) scale(0.072, -0.072)" /><path d="M167 -16Q113 -16 90.5 9.0Q68 34 69.5 76.0Q71 118 87 171L168 420H89Q78 420 74.0 430.0Q70 440 75 460Q81 480 91.0 490.0Q101 500 112 500H194L258 698Q264 718 273.5 724.0Q283 730 303 730Q334 730 342.5 720.5Q351 711 344 691L282 500H408Q419 500 423.5 490.5Q428 481 422 460Q417 441 407.0 430.5Q397 420 386 420H257L162 129Q151 94 156.5 76.5Q162 59 183 59Q213 59 237.0 79.0Q261 99 278 120Q284 129 294.5 132.0Q305 135 320 125Q337 115 338.0 105.0Q339 95 333 84Q321 64 298.5 40.0Q276 16 243.5 0.0Q211 -16 167 -16Z" transform="translate(308.952, 72) scale(0.072, -0.072)" /><path d="M248 -18Q214 -18 183.0 -6.5Q152 5 127.0 26.5Q102 48 83.5 78.0Q65 108 55.5 144.5Q46 181 46 222Q46 261 55.0 302.0Q64 343 82.5 382.0Q101 421 129.0 451.5Q157 482 195.0 500.5Q233 519 281 519Q320 519 347.5 503.5Q375 488 389.0 461.5Q403 435 403 401Q403 344 376.0 291.0Q349 238 304.5 191.5Q260 145 208 109Q154 71 93.5 42.5Q33 14 -26.0 -1.5Q-85 -17 -137 -17Q-151 -17 -157.0 -5.5Q-163 6 -160.5 20.5Q-158 35 -146.5 46.5Q-135 58 -114 58Q-70 58 -21.0 73.0Q28 88 77.0 114.0Q126 140 168 173Q204 200 237.0 234.0Q270 268 291.5 306.0Q313 344 313 382Q313 410 301.0 424.5Q289 439 262 439Q231 439 207.5 417.5Q184 396 167.5 363.0Q151 330 143.0 293.5Q135 257 135 227Q135 190 145.0 159.5Q155 129 173.0 107.0Q191 85 214.5 73.5Q238 62 264 62Q290 62 314.5 71.5Q339 81 362.0 98.0Q385 115 407 134Q421 147 434.0 144.5Q447 142 458 131Q471 119 473.0 105.5Q475 92 462 79Q429 45 394.0 23.0Q359 1 322.5 -8.5Q286 -18 248 -18Z" transform="translate(336.888, 72) scale(0.072, -0.072)" /><path d="M1206 -17Q1158 -17 1130.0 9.0Q1102 35 1098.0 85.0Q1094 135 1118 207L1296 736Q1318 799 1317.0 842.0Q1316 885 1292.0 907.0Q1268 929 1222 929Q1195 929 1164.5 919.0Q1134 909 1101.5 888.5Q1069 868 1037.5 837.0Q1006 806 976.0 764.5Q946 723 920 670L704 13Q700 -1 688.0 -8.0Q676 -15 653 -15Q631 -15 620.0 -8.0Q609 -1 614 15L850 729Q871 796 870.0 840.0Q869 884 846.0 906.5Q823 929 778 929Q749 929 717.5 919.0Q686 909 654.0 888.5Q622 868 590.0 837.0Q558 806 529.0 763.0Q500 720 473 666L262 13Q258 -1 246.0 -8.0Q234 -15 211 -15Q189 -15 178.0 -8.0Q167 -1 172 15L439 837Q455 887 447.0 910.0Q439 933 408 933Q388 933 365.5 922.0Q343 911 317.5 889.5Q292 868 262 834Q247 818 234.0 817.0Q221 816 207 828Q193 840 192.5 852.5Q192 865 204 880Q241 928 278.0 958.0Q315 988 352.5 1003.0Q390 1018 425 1018Q481 1018 508.5 988.5Q536 959 534 904Q534 894 533.5 883.0Q533 872 530 860Q561 899 594.0 928.0Q627 957 661.0 976.5Q695 996 728.5 1005.5Q762 1015 792 1015Q841 1015 875.5 1000.0Q910 985 931.0 956.5Q952 928 956 887Q958 876 958.5 865.0Q959 854 958 841Q990 884 1025.0 916.5Q1060 949 1096.5 971.0Q1133 993 1169.0 1004.0Q1205 1015 1239 1015Q1313 1015 1355.5 981.0Q1398 947 1406.0 884.0Q1414 821 1384 733L1203 190Q1188 146 1185.5 118.5Q1183 91 1193.0 79.0Q1203 67 1223 67Q1236 67 1250.0 75.5Q1264 84 1279.5 102.0Q1295 120 1315 149Q1326 166 1337.5 170.5Q1349 175 1367 166Q1383 158 1386.5 145.5Q1390 133 1382 117Q1365 86 1345.0 61.0Q1325 36 1302.5 18.5Q1280 1 1256.0 -8.0Q1232 -17 1206 -17Z" transform="translate(390.456, 72) scale(0.072, -0.072)" /><path d="M711 -17Q666 -17 636.0 5.0Q606 27 586.0 78.0Q566 129 548 213L506 426L111 -8Q98 -23 84.0 -22.0Q70 -21 54 -6Q40 8 38.5 20.5Q37 33 49 46L486 524L436 792Q424 853 413.0 883.5Q402 914 389.5 923.5Q377 933 357 933Q340 933 318.0 925.5Q296 918 280 910Q264 904 252.5 908.0Q241 912 233 932Q226 950 232.5 960.5Q239 971 253 980Q280 997 311.0 1006.0Q342 1015 367 1015Q402 1015 426.5 1004.0Q451 993 467.0 968.5Q483 944 495.0 905.0Q507 866 518 810L559 595L928 1006Q942 1022 956.5 1022.0Q971 1022 986 1006Q1000 993 999.0 979.0Q998 965 984 948L579 497L630 241Q641 186 650.5 151.0Q660 116 670.5 96.5Q681 77 693.0 69.5Q705 62 722 62Q743 62 764.5 85.0Q786 108 814 158Q821 171 833.0 176.5Q845 182 864 171Q881 161 883.5 148.5Q886 136 877 118Q858 82 834.5 51.5Q811 21 781.0 2.0Q751 -17 711 -17Z" transform="translate(494.424, 72) scale(0.072, -0.072)" /></g></svg>
